!!!OTL: 85. An den Mond.
!!!OTL-incipit:WILLKOMMEN LIEBER MONDENSCHEIN
!!!COM: S. G. Auberlen
!!!ARE: Europa, Mitteleuropa, Deutschland
!!!SCT: F0085
!!!TXL: @@DE
!!!YEM: Copyright 1995, estate of Helmut Schaffrath.
**kern	**text
*ICvox	*
*clefG2	*
*M6/8	*
*k[f#]	*
*G:	*
!LO:TX:a:t=Gemüthlich.	!
{8g	1._Will-
=1	=1
4dd	-kom-
8dd	-men,
(8ddL	lie-
8aJ)	.
8b	-ber
=2	=2
(8aL	Mondenſchein!
8gJ)	.
8g	.
4g}	.
{8g	So
=3	=3
4gg	trau-
8gg	-lich
(8ggL	und
8ff#J)	.
8ee	ſo
=4	=4
[4.dd	hold
8dd]	.
8r}	.
{8b	kommſt
=5	=5
4cc	du
8ee	ʒu
4a	mir
8cc	in's
=6	=6
4b	Kämmerlein,
8dd	.
4g}	.
{8b/	und
=7	=7
(8aL	ſchmückſt
8bJ)	.
8cc/	es
(8dL	aus
8eJ)	.
8f#	mit
=8	=8
[4.g	Gold.
8g]	.
8r}	.
==	==
!!!AGN: Moral - Lied
!!!ONB: ESAC (Essen Associative Code) Database: FINK
!!!AMT: compound duple
!!!AIN: vox
!!!EED: Helmut Schaffrath
!!!EEV: 1.0
!!!GTL: Volkslieder
!!Text: J. Ludw. am Bühl
!!!source: Musikalischer Hausschatz der Deutschen. Eine Sammlung von über 1000 Liedern und Gesängen mit Singstimmen und Klavierbegleitung. Leipzig, Litterarisches Verlags-Haus.
!!!page: 52
!!!URL-scan: https://www.digitale-sammlungen.de/en/view/bsb11144622?page=60,61
!!!ENC: Anna Maria Matuszewska
!!!EEV: 2024/07/25
*-	*-
